tools/download-figma-icons/icons/solid/tree-trunk.svg

<svg width="24" height="24" viewBox="0 0 24 24" fill="none" xmlns="http://www.w3.org/2000/svg">
<path fill-rule="evenodd" clip-rule="evenodd" d="M23.9997 12.0009V13.5008C23.9997 14.3258 23.3255 15.0008 22.4997 15.0008H17.5581L16.7998 15.7508H10.5982C10.4032 15.7508 10.2165 15.8258 10.074 15.9608L7.73403 18.21C7.43404 18.495 7.42579 18.9675 7.71153 19.2675C7.85403 19.425 8.05577 19.5 8.25152 19.5C8.43902 19.5 8.62651 19.4325 8.76826 19.2907L10.8982 17.2508H15.2781L9.219 23.2199C8.69401 23.7374 8.01153 23.9999 7.32829 23.9999C6.6458 23.9999 5.96407 23.7374 5.43908 23.2199L2.51489 20.2957L5.03409 17.7833C5.32733 17.49 5.32733 17.0108 5.03409 16.7183C4.74159 16.425 4.2616 16.425 3.96911 16.7183L1.45666 19.2375L0.782422 18.5632C-0.260807 17.52 -0.260807 15.8258 0.782422 14.7833L11.9489 3.6168L12.6982 7.99671L8.46902 12.2184C8.17577 12.5116 8.17577 12.9909 8.46902 13.2834C8.61826 13.4259 8.80576 13.5008 9.0015 13.5008C9.1965 13.5008 9.384 13.4259 9.53399 13.2834L14.0332 8.7842C14.2057 8.61095 14.2806 8.36346 14.2431 8.12421L13.2457 2.31933L14.7831 0.781859C15.8256 -0.26062 17.5198 -0.26062 18.5548 0.781859L21.8622 4.08179L16.7181 9.21919C16.4249 9.51168 16.4249 9.99092 16.7181 10.2842C16.8681 10.4259 17.0556 10.5009 17.2506 10.5009C17.4456 10.5009 17.6331 10.4259 17.7831 10.2842L22.9205 5.13927L23.2197 5.43926C24.2547 6.48174 24.2622 8.17596 23.2197 9.21919L21.9972 10.5009H22.4997C23.3255 10.5009 23.9997 11.1759 23.9997 12.0009Z" fill="black"/>
</svg>

<svg xmlns="http://www.w3.org/2000/svg" width="24" height="24" fill="none" viewBox="0 0 24 24"><path fill="currentColor" fill-rule="evenodd" d="M24 12v1.5c0 .826-.674 1.5-1.5 1.5h-4.942l-.758.75h-6.202a.76.76 0 0 0-.524.21l-2.34 2.25a.746.746 0 0 0-.022 1.057.73.73 0 0 0 .54.233.73.73 0 0 0 .516-.21l2.13-2.04h4.38L9.22 23.22a2.7 2.7 0 0 1-1.89.78 2.7 2.7 0 0 1-1.89-.78l-2.924-2.924 2.52-2.513a.755.755 0 0 0 0-1.065.754.754 0 0 0-1.066 0l-2.512 2.52-.675-.675a2.674 2.674 0 0 1 0-3.78L11.95 3.617l.75 4.38-4.23 4.221a.755.755 0 0 0 0 1.065c.15.143.337.218.533.218a.77.77 0 0 0 .532-.218l4.5-4.499a.77.77 0 0 0 .21-.66l-.998-5.805L14.783.782a2.665 2.665 0 0 1 3.772 0l3.307 3.3-5.144 5.137a.755.755 0 0 0 0 1.065c.15.142.338.217.533.217a.77.77 0 0 0 .532-.217L22.92 5.14l.3.3a2.68 2.68 0 0 1 0 3.78l-1.223 1.282h.503c.826 0 1.5.675 1.5 1.5" clip-rule="evenodd"/></svg>
